public/build/images/app-type-ssh.svg

<svg xmlns="http://www.w3.org/2000/svg" viewBox="0 0 64 64"><path d="M7 8c-1.654 0-3 1.346-3 3v42c0 1.654 1.346 3 3 3h50c1.654 0 3-1.346 3-3V11c0-1.654-1.346-3-3-3H7zm0 2h50a1 1 0 011 1v42a1 1 0 01-1 1H7a1 1 0 01-1-1V20h41a1 1 0 100-2H6v-7a1 1 0 011-1zm3 2a1 1 0 00-1 1v2a1 1 0 102 0v-2a1 1 0 00-1-1zm5 0a1 1 0 00-1 1v2a1 1 0 102 0v-2a1 1 0 00-1-1zm5 0a1 1 0 00-1 1v2a1 1 0 102 0v-2a1 1 0 00-1-1zm5 0a1 1 0 00-1 1v2a1 1 0 102 0v-2a1 1 0 00-1-1zm5 0a1 1 0 00-1 1v2a1 1 0 102 0v-2a1 1 0 00-1-1zm5 0a1 1 0 00-1 1v2a1 1 0 102 0v-2a1 1 0 00-1-1zm5 0a1 1 0 00-1 1v2a1 1 0 102 0v-2a1 1 0 00-1-1zm5 0a1 1 0 00-1 1v2a1 1 0 102 0v-2a1 1 0 00-1-1zm5 0a1 1 0 00-1 1v2a1 1 0 102 0v-2a1 1 0 00-1-1zm5 0a1 1 0 00-1 1v2a1 1 0 102 0v-2a1 1 0 00-1-1zm-4 6a1 1 0 100 2h4a1 1 0 100-2h-4zM16 28c-2.206 0-4 1.794-4 4v2c0 2.206 1.794 4 4 4h2c1.103 0 2 .897 2 2v2c0 1.103-.897 2-2 2h-2c-1.103 0-2-.897-2-2v-1a1 1 0 10-2 0v1c0 2.206 1.794 4 4 4h2c2.206 0 4-1.794 4-4v-2c0-2.206-1.794-4-4-4h-2c-1.103 0-2-.897-2-2v-2c0-1.103.897-2 2-2h2c1.103 0 2 .897 2 2v1a1 1 0 102 0v-1c0-2.206-1.794-4-4-4h-2zm14 0c-2.206 0-4 1.794-4 4v2c0 2.206 1.794 4 4 4h2c1.103 0 2 .897 2 2v2c0 1.103-.897 2-2 2h-2c-1.103 0-2-.897-2-2v-1a1 1 0 10-2 0v1c0 2.206 1.794 4 4 4h2c2.206 0 4-1.794 4-4v-2c0-2.206-1.794-4-4-4h-2c-1.103 0-2-.897-2-2v-2c0-1.103.897-2 2-2h2c1.103 0 2 .897 2 2v1a1 1 0 102 0v-1c0-2.206-1.794-4-4-4h-2zm11 0a1 1 0 00-1 1v16a1 1 0 102 0v-7h6v7a1 1 0 102 0V29a1 1 0 10-2 0v7h-6v-7a1 1 0 00-1-1z"/></svg>

<?xml version="1.0"?>
<svg xmlns="http://www.w3.org/2000/svg" viewBox="0 0 64 64">
    <path d="M 7 8 C 5.346 8 4 9.346 4 11 L 4 53 C 4 54.654 5.346 56 7 56 L 57 56 C 58.654 56 60 54.654 60 53 L 60 11 C 60 9.346 58.654 8 57 8 L 7 8 z M 7 10 L 57 10 C 57.552 10 58 10.448 58 11 L 58 53 C 58 53.552 57.552 54 57 54 L 7 54 C 6.448 54 6 53.552 6 53 L 6 20 L 47 20 C 47.553 20 48 19.553 48 19 C 48 18.447 47.553 18 47 18 L 6 18 L 6 11 C 6 10.448 6.448 10 7 10 z M 10 12 C 9.447 12 9 12.447 9 13 L 9 15 C 9 15.553 9.447 16 10 16 C 10.553 16 11 15.553 11 15 L 11 13 C 11 12.447 10.553 12 10 12 z M 15 12 C 14.447 12 14 12.447 14 13 L 14 15 C 14 15.553 14.447 16 15 16 C 15.553 16 16 15.553 16 15 L 16 13 C 16 12.447 15.553 12 15 12 z M 20 12 C 19.447 12 19 12.447 19 13 L 19 15 C 19 15.553 19.447 16 20 16 C 20.553 16 21 15.553 21 15 L 21 13 C 21 12.447 20.553 12 20 12 z M 25 12 C 24.447 12 24 12.447 24 13 L 24 15 C 24 15.553 24.447 16 25 16 C 25.553 16 26 15.553 26 15 L 26 13 C 26 12.447 25.553 12 25 12 z M 30 12 C 29.447 12 29 12.447 29 13 L 29 15 C 29 15.553 29.447 16 30 16 C 30.553 16 31 15.553 31 15 L 31 13 C 31 12.447 30.553 12 30 12 z M 35 12 C 34.447 12 34 12.447 34 13 L 34 15 C 34 15.553 34.447 16 35 16 C 35.553 16 36 15.553 36 15 L 36 13 C 36 12.447 35.553 12 35 12 z M 40 12 C 39.447 12 39 12.447 39 13 L 39 15 C 39 15.553 39.447 16 40 16 C 40.553 16 41 15.553 41 15 L 41 13 C 41 12.447 40.553 12 40 12 z M 45 12 C 44.447 12 44 12.447 44 13 L 44 15 C 44 15.553 44.447 16 45 16 C 45.553 16 46 15.553 46 15 L 46 13 C 46 12.447 45.553 12 45 12 z M 50 12 C 49.447 12 49 12.447 49 13 L 49 15 C 49 15.553 49.447 16 50 16 C 50.553 16 51 15.553 51 15 L 51 13 C 51 12.447 50.553 12 50 12 z M 55 12 C 54.447 12 54 12.447 54 13 L 54 15 C 54 15.553 54.447 16 55 16 C 55.553 16 56 15.553 56 15 L 56 13 C 56 12.447 55.553 12 55 12 z M 51 18 C 50.447 18 50 18.447 50 19 C 50 19.553 50.447 20 51 20 L 55 20 C 55.553 20 56 19.553 56 19 C 56 18.447 55.553 18 55 18 L 51 18 z M 16 28 C 13.794 28 12 29.794 12 32 L 12 34 C 12 36.206 13.794 38 16 38 L 18 38 C 19.103 38 20 38.897 20 40 L 20 42 C 20 43.103 19.103 44 18 44 L 16 44 C 14.897 44 14 43.103 14 42 L 14 41 C 14 40.447 13.553 40 13 40 C 12.447 40 12 40.447 12 41 L 12 42 C 12 44.206 13.794 46 16 46 L 18 46 C 20.206 46 22 44.206 22 42 L 22 40 C 22 37.794 20.206 36 18 36 L 16 36 C 14.897 36 14 35.103 14 34 L 14 32 C 14 30.897 14.897 30 16 30 L 18 30 C 19.103 30 20 30.897 20 32 L 20 33 C 20 33.553 20.447 34 21 34 C 21.553 34 22 33.553 22 33 L 22 32 C 22 29.794 20.206 28 18 28 L 16 28 z M 30 28 C 27.794 28 26 29.794 26 32 L 26 34 C 26 36.206 27.794 38 30 38 L 32 38 C 33.103 38 34 38.897 34 40 L 34 42 C 34 43.103 33.103 44 32 44 L 30 44 C 28.897 44 28 43.103 28 42 L 28 41 C 28 40.447 27.553 40 27 40 C 26.447 40 26 40.447 26 41 L 26 42 C 26 44.206 27.794 46 30 46 L 32 46 C 34.206 46 36 44.206 36 42 L 36 40 C 36 37.794 34.206 36 32 36 L 30 36 C 28.897 36 28 35.103 28 34 L 28 32 C 28 30.897 28.897 30 30 30 L 32 30 C 33.103 30 34 30.897 34 32 L 34 33 C 34 33.553 34.447 34 35 34 C 35.553 34 36 33.553 36 33 L 36 32 C 36 29.794 34.206 28 32 28 L 30 28 z M 41 28 C 40.447 28 40 28.447 40 29 L 40 45 C 40 45.553 40.447 46 41 46 C 41.553 46 42 45.553 42 45 L 42 38 L 48 38 L 48 45 C 48 45.553 48.447 46 49 46 C 49.553 46 50 45.553 50 45 L 50 29 C 50 28.447 49.553 28 49 28 C 48.447 28 48 28.447 48 29 L 48 36 L 42 36 L 42 29 C 42 28.447 41.553 28 41 28 z"/>
</svg>
